apps/32/smw.svg

<?xml version="1.0" encoding="UTF-8" standalone="no"?>
<!-- Created with Inkscape (http://www.inkscape.org/) -->

<svg
   width="32"
   height="32"
   version="1.1"
   viewBox="0 0 32 32"
   id="svg22"
   xmlns:xlink="http://www.w3.org/1999/xlink"
   xmlns="http://www.w3.org/2000/svg"
   xmlns:svg="http://www.w3.org/2000/svg">
  <defs
     id="defs12">
    <linearGradient
       xlink:href="#linearGradient3487"
       id="linearGradient3403"
       gradientUnits="userSpaceOnUse"
       x1="6.9491749"
       y1="4.5549412"
       x2="11.215498"
       y2="59.052471" />
    <linearGradient
       id="linearGradient3487">
      <stop
         style="stop-color:#32373c;stop-opacity:1"
         offset="0"
         id="stop3481" />
      <stop
         id="stop3483"
         offset="0.36804965"
         style="stop-color:#1a1a1a;stop-opacity:1" />
      <stop
         style="stop-color:#31363b;stop-opacity:1"
         offset="1"
         id="stop3485" />
    </linearGradient>
    <linearGradient
       xlink:href="#linearGradient20604"
       id="linearGradient20558"
       gradientUnits="userSpaceOnUse"
       x1="25.802212"
       y1="20.373846"
       x2="25.111048"
       y2="58.912758" />
    <linearGradient
       id="linearGradient20604">
      <stop
         id="stop20598"
         offset="0"
         style="stop-color:#3d3d3d;stop-opacity:1" />
      <stop
         style="stop-color:#000000;stop-opacity:1"
         offset="0.61772454"
         id="stop20600" />
      <stop
         id="stop20602"
         offset="1"
         style="stop-color:#3d3d3d;stop-opacity:1" />
    </linearGradient>
    <filter
       style="color-interpolation-filters:sRGB"
       id="filter20720"
       x="-0.017024755"
       y="-0.016457183"
       width="1.0340491"
       height="1.0329144">
      <feGaussianBlur
         stdDeviation="0.14745661"
         id="feGaussianBlur20722" />
    </filter>
    <linearGradient
       gradientTransform="translate(0.36067797,-0.13016949)"
       xlink:href="#linearGradient4555"
       id="linearGradient4557"
       x1="43.499737"
       y1="64.011795"
       x2="44.141731"
       y2="0.30621234"
       gradientUnits="userSpaceOnUse" />
    <linearGradient
       id="linearGradient4555">
      <stop
         style="stop-color:#141618;stop-opacity:1"
         offset="0"
         id="stop4551" />
      <stop
         id="stop4559"
         offset="0.51820582"
         style="stop-color:#686868;stop-opacity:1" />
      <stop
         style="stop-color:#31363b;stop-opacity:1"
         offset="1"
         id="stop4553" />
    </linearGradient>
    <filter
       style="color-interpolation-filters:sRGB"
       id="filter4601"
       x="-0.030244955"
       width="1.0604899"
       y="-0.030100647"
       height="1.0602013">
      <feGaussianBlur
         stdDeviation="0.014790289"
         id="feGaussianBlur4603" />
    </filter>
  </defs>
  <g
     id="g1"
     style="fill:#d9d9d9;fill-opacity:1"
     transform="scale(0.665)">
    <path
       style="fill:#d9d9d9;fill-opacity:1;stroke-width:1.01831"
       d="M 17.070035,3.0565667 3.7769063,3.0209207 c 0,0 0.021252,13.7467543 0.021262,14.2582033 0,11.271875 -0.011334,24.094734 -0.011334,26.543735 H 32.378532 c 0.504784,3.38e-4 12.743898,-4.5e-4 13.264852,-4.5e-4 l 0.005,-12.187472 V 6.0410568 c -3.8e-5,-0.376797 -0.0071,-1.7721456 -0.007,-2.9844899 z"
       id="path2" />
  </g>
  <g
     id="g25"
     transform="matrix(0.665,0,0,0.665,3.0354165,-0.78274275)">
    <ellipse
       style="opacity:0.2"
       cx="-47.282001"
       cy="7.5960002"
       rx="3.6800001"
       ry="5.8559999"
       transform="matrix(-0.85217299,-0.52326016,-0.42093333,0.90709158,0,0)"
       id="ellipse1" />
    <ellipse
       style="opacity:0.2"
       cx="-3.467"
       cy="32.870998"
       rx="3.6800001"
       ry="5.8559999"
       transform="matrix(0.85217299,-0.52326016,0.42093333,0.90709158,0,0)"
       id="ellipse2" />
    <path
       style="opacity:0.2"
       d="m 12,20.247 v 9.15702 c -0.741762,1.394438 -2,3.292881 -2,5.885578 C 10,40.652627 16.26787,45 23.999735,45 31.7316,45 38,40.652627 38,35.289598 38,32.911154 36.741697,31.116871 36,29.75934 V 20.247 l -12,-4.49 z"
       id="path2-3" />
    <path
       style="fill:#ea2028"
       d="M 40,19 C 40,27.836556 32.836557,35 24.000001,35 15.163445,35 8.0000002,27.836556 8.0000002,19 8.0000002,10.163444 17.6881,3 24.000001,3 30.311902,3 40,10.163444 40,19 Z"
       id="path3" />
    <ellipse
       style="fill:#e5b493"
       cx="-46.858002"
       cy="6.7379999"
       rx="3.6800001"
       ry="5.8559999"
       transform="matrix(-0.85217299,-0.52326016,-0.42093333,0.90709158,0,0)"
       id="ellipse3" />
    <path
       style="opacity:0.1"
       d="m 38.669504,25.976472 c 0.685179,0.0012 1.285693,0.530971 1.468656,1.295528 -0.470801,-0.363882 -0.813334,-0.691844 -1.509437,-0.692585 -0.323942,3.26e-4 -0.96605,0.166008 -1.26562,0.253494 0.275764,-0.530831 0.771408,-0.855761 1.306401,-0.856437 z"
       id="path4" />
    <path
       style="opacity:0.1"
       d="m 38.871708,29.981773 c 0.266023,0.631428 0.01229,1.390966 -0.620435,1.857525 0.151539,-0.575411 0.320007,-1.018703 0.0493,-1.660012 -0.126595,-0.298182 -0.529503,-0.824887 -0.726858,-1.066644 0.596337,0.04699 1.088791,0.376735 1.29799,0.869131 z"
       id="path5" />
    <path
       style="fill:#a84e37"
       d="M 37.775643,20.731 H 34.6 v 12.181838 c 2.063788,-0.705979 3.275584,-1.768075 3.476651,-3.806918 0.09448,-1.151107 -0.557108,-2.499515 -0.619249,-3.823537 -0.09852,-2.099188 0.184605,-2.632762 0.318241,-4.551383 z"
       id="path6" />
    <ellipse
       style="fill:#e5b493"
       cx="-3.043"
       cy="32.013"
       rx="3.6800001"
       ry="5.8559999"
       transform="matrix(0.85217299,-0.52326016,0.42093333,0.90709158,0,0)"
       id="ellipse6" />
    <path
       style="opacity:0.1"
       d="M 9.306813,25.976472 C 8.6216345,25.977672 8.02112,26.507443 7.8381572,27.272 8.3089578,26.908118 8.6514915,26.580156 9.347594,26.579415 c 0.323942,3.26e-4 0.96605,0.166008 1.26562,0.253494 C 10.33745,26.302078 9.841806,25.977148 9.306813,25.976472 Z"
       id="path7" />
    <path
       style="opacity:0.1"
       d="m 9.104609,29.981773 c -0.266023,0.631428 -0.012293,1.390966 0.6204354,1.857525 -0.1515397,-0.575411 -0.3200079,-1.018703 -0.049303,-1.660012 0.1265944,-0.298182 0.5295026,-0.824887 0.7268576,-1.066644 -0.5963374,0.04699 -1.0887912,0.376735 -1.29799,0.869131 z"
       id="path8" />
    <path
       style="fill:#a84e37"
       d="m 10.310353,20.731 h 3.175643 v 12.181838 c -2.063788,-0.705979 -3.275584,-1.768075 -3.476651,-3.806918 -0.09448,-1.151107 0.557108,-2.499515 0.619249,-3.823537 0.09852,-2.099188 -0.184605,-2.632762 -0.318241,-4.551383 z"
       id="path9" />
    <path
       style="fill:#f0c3a5"
       d="m 12,19.247 v 9.15702 c -0.741762,1.394438 -2,3.292881 -2,5.885578 C 10,39.652627 16.26787,44 23.999735,44 31.7316,44 38,39.652627 38,34.289598 38,31.911154 36.741697,30.116871 36,28.75934 V 19.247 l -12,-4.49 z"
       id="path10" />
    <path
       style="opacity:0.1;stroke-width:1.17635"
       d="m 15,37.58077 c 2.01966,1.804868 6.685292,2.841861 9.278378,2.843058 C 26.517612,40.422483 28.629403,40.074299 30,39.480469 28.445434,39.650633 26.72967,39.73958 24.98919,39.740234 22.446376,39.739117 19.097233,39 15,37.58077 Z m 5.78919,3.243449 c -0.0425,0.06052 -0.06422,0.12198 -0.06487,0.183593 0.0022,0.548054 1.634998,0.992053 3.648649,0.992188 2.013651,-1.35e-4 3.646403,-0.444134 3.648649,-0.992188 -5.42e-4,-0.05168 -0.0159,-0.103268 -0.04594,-0.154296 -0.962462,0.163979 -2.211711,0.255091 -3.508108,0.255859 -1.376496,-5.39e-4 -2.697048,-0.102912 -3.678378,-0.285156 z"
       id="path11" />
    <path
       style="fill:#5b4b53"
       d="m 33.936937,30 c -2.283319,2.066153 -6.069084,3.301804 -10.115816,3.301741 -3.971469,-0.0037 -7.693667,-1.197647 -9.986185,-3.203167 -0.495177,1.123654 -0.641018,2.160746 -0.834931,3.234398 -6.7e-5,1.158589 0.920851,2.097851 2.056895,2.097869 0.331953,-2.77e-4 0.658909,-0.08248 0.952946,-0.239603 -0.01831,0.1103 -0.02795,0.221918 -0.02881,0.333785 1.97e-4,1.158398 0.921037,2.097363 2.056894,2.097381 0.779646,-0.001 1.491717,-0.451481 1.838986,-1.163368 -0.01295,0.09511 -0.01977,0.190957 -0.02044,0.286938 1.49e-4,1.244873 1.014395,2.253977 2.265512,2.254026 0.753235,-2.66e-4 1.457084,-0.372998 1.878015,-0.994524 0.420931,0.621526 1.124779,0.994257 1.878014,0.994524 1.251298,2.06e-4 2.265826,-1.008973 2.265975,-2.254026 -8.02e-4,-0.09615 -0.0078,-0.192159 -0.02091,-0.287426 0.347135,0.712077 1.059234,1.162749 1.838986,1.163856 1.135857,-1.8e-5 2.056698,-0.938983 2.056895,-2.097381 -8.61e-4,-0.111867 -0.01049,-0.223485 -0.02881,-0.333785 0.294037,0.157118 0.620993,0.239326 0.952945,0.239603 1.136045,-1.7e-5 2.056963,-0.93928 2.056896,-2.097869 C 34.748226,32.179437 34.345847,31.014863 33.936931,30 Z"
       id="path12" />
    <ellipse
       style="fill:#ffffff"
       cx="24"
       cy="10.5"
       rx="6"
       ry="4.5"
       id="ellipse13" />
    <path
       style="fill:#ed475f"
       d="m 26.095703,7.0292969 -2.15625,2.3652343 -2.041015,-2.2539062 -2.410157,5.134766 2.103034,0.644206 0.656732,-3.4430345 1.689453,1.8632815 1.832031,-2.0097659 1.086749,3.2770189 1.655439,-0.663738 z"
       id="path14" />
    <ellipse
       style="opacity:0.2"
       cx="18.5"
       cy="27"
       rx="3.5"
       ry="4"
       id="ellipse14" />
    <ellipse
       style="fill:#ffffff"
       cx="18.5"
       cy="26"
       rx="3.5"
       ry="4"
       id="ellipse15" />
    <path
       style="fill:#2784cf"
       d="M 20.314453,22.761719 A 2.3151155,3.1189752 0 0 0 18,25.880859 2.3151155,3.1189752 0 0 0 20.314453,29 2.3151155,3.1189752 0 0 0 20.914062,28.892578 3.5,4 0 0 0 22,26 3.5,4 0 0 0 20.572266,22.783203 2.3151155,3.1189752 0 0 0 20.314453,22.761719 Z"
       id="path15" />
    <ellipse
       style="fill:#3f3f3f"
       cx="20.25"
       cy="25.865999"
       rx="1.25"
       ry="1.75"
       id="ellipse16" />
    <path
       style="fill:#f0c3a5;fill-opacity:1"
       d="m 18.501655,21.938588 c -1.793633,5.3e-5 -3.631002,1.475143 -3.630827,3.712815 0.0013,0.173709 0.143717,0.730077 0.162857,0.902141 0.603208,-1.450184 2.105022,-1.710169 3.571095,-1.711741 1.221837,0.0019 2.698751,-0.06531 3.395229,1.024196 -0.05322,-2.187782 -1.743893,-3.926134 -3.498343,-3.927411 z"
       id="path13-7" />
    <path
       style="fill:#5d4e55"
       d="m 18.77528,20.731 c -1.793633,0 -3.266963,1.076816 -3.266787,3.314489 0.0013,0.173709 0.01159,0.347133 0.03075,0.519197 0.603209,-1.450184 1.932712,-2.382929 3.398785,-2.384501 1.221837,0.0019 2.365502,0.652511 3.061981,1.742018 C 21.946793,21.734421 20.529732,20.731 18.775282,20.731 Z"
       id="path13" />
    <path
       style="fill:#5d4e55"
       d="M 29.752587,17.335941 A 3.2474897,4.0514521 0 0 1 33,21.387789 a 3.2474897,4.0514521 0 0 1 -0.03075,0.519197 3.7330954,4.0514521 0 0 0 -3.398785,-2.384501 3.7330954,4.0514521 0 0 0 -3.061981,1.742019 3.2474897,4.0514521 0 0 1 3.244101,-3.928563 z"
       id="path16" />
    <ellipse
       style="opacity:0.2"
       cx="-29.5"
       cy="27"
       rx="3.5"
       ry="4"
       transform="scale(-1,1)"
       id="ellipse17" />
    <ellipse
       style="fill:#ffffff"
       cx="-29.5"
       cy="26"
       rx="3.5"
       ry="4"
       transform="scale(-1,1)"
       id="ellipse18" />
    <path
       style="opacity:0.1"
       d="m 24,14.957082 c -5.509764,0.09121 -11.271452,1.288854 -13.599468,6.027344 -0.4626198,0.941627 -0.679668,2.088016 0.222625,2.55664 0.829353,0.396869 1.195064,-0.0987 1.773255,-0.617187 C 15.845634,19.930897 19.405892,18.34966 24,18.34966 c 4.594108,0 8.154366,1.581237 11.603588,4.574219 0.578191,0.518487 0.943901,1.014056 1.773255,0.617187 0.902293,-0.468624 0.685244,-1.615013 0.222624,-2.55664 C 35.271452,16.245936 29.509764,15.048292 24,14.957082 Z"
       id="path18" />
    <path
       style="fill:#2784cf"
       d="M 27.685547,22.761719 A 2.3151155,3.1189752 0 0 1 30,25.880859 2.3151155,3.1189752 0 0 1 27.685547,29 2.3151155,3.1189752 0 0 1 27.085938,28.892578 3.5,4 0 0 1 26,26 a 3.5,4 0 0 1 1.427734,-3.216797 2.3151155,3.1189752 0 0 1 0.257813,-0.02148 z"
       id="path19" />
    <ellipse
       style="fill:#3f3f3f"
       cx="-27.75"
       cy="25.865999"
       rx="1.25"
       ry="1.75"
       transform="scale(-1,1)"
       id="ellipse19" />
    <ellipse
       style="opacity:0.1"
       cx="24"
       cy="32"
       rx="6"
       ry="5"
       id="ellipse20" />
    <ellipse
       style="fill:#ffd0ae"
       cx="24"
       cy="31"
       rx="6"
       ry="5"
       id="ellipse21" />
    <path
       style="fill:#ff3137"
       d="m 24,13.957082 c -5.509764,0.09121 -11.271452,1.288854 -13.599468,6.027344 -0.4626198,0.941627 -0.679668,2.088016 0.222625,2.55664 0.829353,0.396869 1.195064,-0.0987 1.773255,-0.617187 C 15.845634,18.930897 19.405892,17.34966 24,17.34966 c 4.594108,0 8.154366,1.581237 11.603588,4.574219 0.578191,0.518487 0.943901,1.014056 1.773255,0.617187 0.902293,-0.468624 0.685244,-1.615013 0.222624,-2.55664 C 35.271452,15.245936 29.509764,14.048292 24,13.957082 Z"
       id="path21" />
    <path
       style="opacity:0.2;fill:#ffffff"
       d="m 24,13.957031 c -5.509764,0.09121 -11.271593,1.288854 -13.599609,6.027344 -0.310166,0.631318 -0.5001129,1.35096 -0.326172,1.900391 0.0704,-0.302679 0.183884,-0.610776 0.326172,-0.900391 2.328016,-4.73849 8.089845,-5.936134 13.599609,-6.027344 5.509764,0.09121 11.271594,1.288854 13.599609,6.027344 0.142288,0.289615 0.255769,0.597712 0.326172,0.900391 0.173941,-0.549431 -0.01601,-1.269073 -0.326172,-1.900391 C 35.271594,15.245885 29.509764,14.048241 24,13.957031 Z"
       id="path22" />
    <path
       style="opacity:0.2;fill:#ffffff"
       d="M 24,3 C 17.688099,3 8,10.163444 8,19 8,19.134439 8.016234,19.264792 8.019531,19.398438 8.4447343,10.840791 17.832058,4 24,4 30.167942,4 39.555266,10.840791 39.980469,19.398438 39.983766,19.264792 40,19.134439 40,19 40,10.163444 30.311901,3 24,3 Z"
       id="path23" />
    <path
       style="opacity:0.2;fill:#ffffff"
       d="m 24,26 a 6,5 0 0 0 -6,5 6,5 0 0 0 0.0332,0.476562 A 6,5 0 0 1 24,27 6,5 0 0 1 29.966797,31.523438 6,5 0 0 0 30,31 6,5 0 0 0 24,26 Z"
       id="path24" />
  </g>
  <path
     style="display:inline;mix-blend-mode:normal;fill:url(#linearGradient3403);fill-opacity:1;stroke:url(#linearGradient20558);stroke-width:1.16242;stroke-linecap:butt;stroke-linejoin:round;stroke-miterlimit:4;stroke-dasharray:none;stroke-opacity:1;filter:url(#filter20720)"
     d="M 4.7043071,3.9814882 4.6913695,60.80196 H 58.59546 l 1.022155,-2.866369 c 0,0 -23.87537,0.766388 -32.844441,-4.140386 C 16.257548,48.042344 11.401114,4.0978197 11.401114,4.0978197 Z"
     id="path1686"
     transform="matrix(0.5,0,0,0.5,0.06630362,0.01654936)" />
  <rect
     style="display:inline;fill:none;fill-opacity:1;stroke:url(#linearGradient4557);stroke-width:3.71366;stroke-linejoin:round;stroke-miterlimit:7.8;stroke-dasharray:none;stroke-opacity:0.995146;filter:url(#filter4601)"
     id="rect4539"
     width="62.566689"
     height="62.866646"
     x="1.0323594"
     y="0.59551275"
     ry="6.2447233"
     rx="5.8029528"
     transform="matrix(0.46839137,0,0,0.46743669,0.90638486,1.0268972)" />
</svg>

<svg width="32" height="32" version="1.1" viewBox="0 0 32 32" xmlns="http://www.w3.org/2000/svg" xmlns:xlink="http://www.w3.org/1999/xlink">
<defs>
<linearGradient id="linearGradient3403" x1="6.9492" x2="11.215" y1="4.5549" y2="59.052" gradientUnits="userSpaceOnUse">
<stop style="stop-color:#32373c" offset="0"/>
<stop style="stop-color:#1a1a1a" offset=".36805"/>
<stop style="stop-color:#31363b" offset="1"/>
</linearGradient>
<linearGradient id="linearGradient20558" x1="25.802" x2="25.111" y1="20.374" y2="58.913" gradientUnits="userSpaceOnUse">
<stop style="stop-color:#3d3d3d" offset="0"/>
<stop offset=".61772"/>
<stop style="stop-color:#3d3d3d" offset="1"/>
</linearGradient>
<linearGradient id="linearGradient4557" x1="43.5" x2="44.142" y1="64.012" y2=".30621" gradientTransform="translate(.36068 -.13017)" gradientUnits="userSpaceOnUse">
<stop style="stop-color:#141618" offset="0"/>
<stop style="stop-color:#686868" offset=".51821"/>
<stop style="stop-color:#31363b" offset="1"/>
</linearGradient>
</defs>
<g transform="scale(.665)" style="fill:#d9d9d9">
<path d="m17.07 3.0566-13.293-0.035646s0.021252 13.747 0.021262 14.258c0 11.272-0.011334 24.095-0.011334 26.544h28.592c0.50478 3.38e-4 12.744-4.5e-4 13.265-4.5e-4l5e-3 -12.187v-25.594c-3.8e-5 -0.3768-0.0071-1.7721-7e-3 -2.9845z" style="fill:#d9d9d9;stroke-width:1.0183"/>
</g>
<g transform="matrix(.665 0 0 .665 3.0354 -.78274)">
<ellipse transform="matrix(-.85217 -.52326 -.42093 .90709 0 0)" cx="-47.282" cy="7.596" rx="3.68" ry="5.856" style="opacity:.2"/>
<ellipse transform="matrix(.85217 -.52326 .42093 .90709 0 0)" cx="-3.467" cy="32.871" rx="3.68" ry="5.856" style="opacity:.2"/>
<path d="m12 20.247v9.157c-0.74176 1.3944-2 3.2929-2 5.8856 0 5.363 6.2679 9.7104 14 9.7104s14-4.3474 14-9.7104c0-2.3784-1.2583-4.1727-2-5.5303v-9.5123l-12-4.49z" style="opacity:.2"/>
<path d="m40 19c0 8.8366-7.1634 16-16 16s-16-7.1634-16-16 9.6881-16 16-16 16 7.1634 16 16z" style="fill:#ea2028"/>
<ellipse transform="matrix(-.85217 -.52326 -.42093 .90709 0 0)" cx="-46.858" cy="6.738" rx="3.68" ry="5.856" style="fill:#e5b493"/>
<path d="m38.67 25.976c0.68518 0.0012 1.2857 0.53097 1.4687 1.2955-0.4708-0.36388-0.81333-0.69184-1.5094-0.69258-0.32394 3.26e-4 -0.96605 0.16601-1.2656 0.25349 0.27576-0.53083 0.77141-0.85576 1.3064-0.85644z" style="opacity:.1"/>
<path d="m38.872 29.982c0.26602 0.63143 0.01229 1.391-0.62044 1.8575 0.15154-0.57541 0.32001-1.0187 0.0493-1.66-0.1266-0.29818-0.5295-0.82489-0.72686-1.0666 0.59634 0.04699 1.0888 0.37674 1.298 0.86913z" style="opacity:.1"/>
<path d="m37.776 20.731h-3.1756v12.182c2.0638-0.70598 3.2756-1.7681 3.4767-3.8069 0.09448-1.1511-0.55711-2.4995-0.61925-3.8235-0.09852-2.0992 0.1846-2.6328 0.31824-4.5514z" style="fill:#a84e37"/>
<ellipse transform="matrix(.85217 -.52326 .42093 .90709 0 0)" cx="-3.043" cy="32.013" rx="3.68" ry="5.856" style="fill:#e5b493"/>
<path d="m9.3068 25.976c-0.68518 0.0012-1.2857 0.53097-1.4687 1.2955 0.4708-0.36388 0.81333-0.69184 1.5094-0.69258 0.32394 3.26e-4 0.96605 0.16601 1.2656 0.25349-0.27576-0.53083-0.77141-0.85576-1.3064-0.85644z" style="opacity:.1"/>
<path d="m9.1046 29.982c-0.26602 0.63143-0.012293 1.391 0.62044 1.8575-0.15154-0.57541-0.32001-1.0187-0.049303-1.66 0.12659-0.29818 0.5295-0.82489 0.72686-1.0666-0.59634 0.04699-1.0888 0.37674-1.298 0.86913z" style="opacity:.1"/>
<path d="m10.31 20.731h3.1756v12.182c-2.0638-0.70598-3.2756-1.7681-3.4767-3.8069-0.09448-1.1511 0.55711-2.4995 0.61925-3.8235 0.09852-2.0992-0.1846-2.6328-0.31824-4.5514z" style="fill:#a84e37"/>
<path d="m12 19.247v9.157c-0.74176 1.3944-2 3.2929-2 5.8856 0 5.363 6.2679 9.7104 14 9.7104s14-4.3474 14-9.7104c0-2.3784-1.2583-4.1727-2-5.5303v-9.5123l-12-4.49z" style="fill:#f0c3a5"/>
<path d="m15 37.581c2.0197 1.8049 6.6853 2.8419 9.2784 2.8431 2.2392-0.001345 4.351-0.34953 5.7216-0.94336-1.5546 0.17016-3.2703 0.25911-5.0108 0.25976-2.5428-0.001117-5.892-0.74023-9.9892-2.1595zm5.7892 3.2434c-0.0425 0.06052-0.06422 0.12198-0.06487 0.18359 0.0022 0.54805 1.635 0.99205 3.6486 0.99219 2.0137-1.35e-4 3.6464-0.44413 3.6486-0.99219-5.42e-4 -0.05168-0.0159-0.10327-0.04594-0.1543-0.96246 0.16398-2.2117 0.25509-3.5081 0.25586-1.3765-5.39e-4 -2.697-0.10291-3.6784-0.28516z" style="opacity:.1;stroke-width:1.1764"/>
<path d="m33.937 30c-2.2833 2.0662-6.0691 3.3018-10.116 3.3017-3.9715-0.0037-7.6937-1.1976-9.9862-3.2032-0.49518 1.1237-0.64102 2.1607-0.83493 3.2344-6.7e-5 1.1586 0.92085 2.0979 2.0569 2.0979 0.33195-2.77e-4 0.65891-0.08248 0.95295-0.2396-0.01831 0.1103-0.02795 0.22192-0.02881 0.33378 1.97e-4 1.1584 0.92104 2.0974 2.0569 2.0974 0.77965-1e-3 1.4917-0.45148 1.839-1.1634-0.01295 0.09511-0.01977 0.19096-0.02044 0.28694 1.49e-4 1.2449 1.0144 2.254 2.2655 2.254 0.75324-2.66e-4 1.4571-0.373 1.878-0.99452 0.42093 0.62153 1.1248 0.99426 1.878 0.99452 1.2513 2.06e-4 2.2658-1.009 2.266-2.254-8.02e-4 -0.09615-0.0078-0.19216-0.02091-0.28743 0.34714 0.71208 1.0592 1.1627 1.839 1.1639 1.1359-1.8e-5 2.0567-0.93898 2.0569-2.0974-8.61e-4 -0.11187-0.01049-0.22348-0.02881-0.33378 0.29404 0.15712 0.62099 0.23933 0.95294 0.2396 1.136-1.7e-5 2.057-0.93928 2.0569-2.0979-0.25177-1.1535-0.65415-2.3181-1.0631-3.333z" style="fill:#5b4b53"/>
<ellipse cx="24" cy="10.5" rx="6" ry="4.5" style="fill:#fff"/>
<path d="m26.096 7.0293-2.1562 2.3652-2.041-2.2539-2.4102 5.1348 2.103 0.64421 0.65673-3.443 1.6895 1.8633 1.832-2.0098 1.0867 3.277 1.6554-0.66374z" style="fill:#ed475f"/>
<ellipse cx="18.5" cy="27" rx="3.5" ry="4" style="opacity:.2"/>
<ellipse cx="18.5" cy="26" rx="3.5" ry="4" style="fill:#fff"/>
<path d="m20.314 22.762a2.3151 3.119 0 0 0-2.3145 3.1191 2.3151 3.119 0 0 0 2.3145 3.1191 2.3151 3.119 0 0 0 0.59961-0.10742 3.5 4 0 0 0 1.0859-2.8926 3.5 4 0 0 0-1.4277-3.2168 2.3151 3.119 0 0 0-0.25781-0.021484z" style="fill:#2784cf"/>
<ellipse cx="20.25" cy="25.866" rx="1.25" ry="1.75" style="fill:#3f3f3f"/>
<path d="m18.502 21.939c-1.7936 5.3e-5 -3.631 1.4751-3.6308 3.7128 0.0013 0.17371 0.14372 0.73008 0.16286 0.90214 0.60321-1.4502 2.105-1.7102 3.5711-1.7117 1.2218 0.0019 2.6988-0.06531 3.3952 1.0242-0.05322-2.1878-1.7439-3.9261-3.4983-3.9274z" style="fill:#f0c3a5"/>
<path d="m18.775 20.731c-1.7936 0-3.267 1.0768-3.2668 3.3145 0.0013 0.17371 0.01159 0.34713 0.03075 0.5192 0.60321-1.4502 1.9327-2.3829 3.3988-2.3845 1.2218 0.0019 2.3655 0.65251 3.062 1.742-0.053216-2.1878-1.4703-3.1912-3.2247-3.1912z" style="fill:#5d4e55"/>
<path d="m29.753 17.336a3.2475 4.0515 0 0 1 3.2474 4.0518 3.2475 4.0515 0 0 1-0.03075 0.5192 3.7331 4.0515 0 0 0-3.3988-2.3845 3.7331 4.0515 0 0 0-3.062 1.742 3.2475 4.0515 0 0 1 3.2441-3.9286z" style="fill:#5d4e55"/>
<ellipse transform="scale(-1,1)" cx="-29.5" cy="27" rx="3.5" ry="4" style="opacity:.2"/>
<ellipse transform="scale(-1,1)" cx="-29.5" cy="26" rx="3.5" ry="4" style="fill:#fff"/>
<path d="m24 14.957c-5.5098 0.09121-11.271 1.2889-13.599 6.0273-0.46262 0.94163-0.67967 2.088 0.22262 2.5566 0.82935 0.39687 1.1951-0.0987 1.7733-0.61719 3.4492-2.993 7.0095-4.5742 11.604-4.5742s8.1544 1.5812 11.604 4.5742c0.57819 0.51849 0.9439 1.0141 1.7733 0.61719 0.90229-0.46862 0.68524-1.615 0.22262-2.5566-2.328-4.7385-8.0897-5.9361-13.599-6.0273z" style="opacity:.1"/>
<path d="m27.686 22.762a2.3151 3.119 0 0 1 2.3145 3.1191 2.3151 3.119 0 0 1-2.3145 3.1191 2.3151 3.119 0 0 1-0.59961-0.10742 3.5 4 0 0 1-1.0859-2.8926 3.5 4 0 0 1 1.4277-3.2168 2.3151 3.119 0 0 1 0.25781-0.02148z" style="fill:#2784cf"/>
<ellipse transform="scale(-1,1)" cx="-27.75" cy="25.866" rx="1.25" ry="1.75" style="fill:#3f3f3f"/>
<ellipse cx="24" cy="32" rx="6" ry="5" style="opacity:.1"/>
<ellipse cx="24" cy="31" rx="6" ry="5" style="fill:#ffd0ae"/>
<path d="m24 13.957c-5.5098 0.09121-11.271 1.2889-13.599 6.0273-0.46262 0.94163-0.67967 2.088 0.22262 2.5566 0.82935 0.39687 1.1951-0.0987 1.7733-0.61719 3.4492-2.993 7.0095-4.5742 11.604-4.5742s8.1544 1.5812 11.604 4.5742c0.57819 0.51849 0.9439 1.0141 1.7733 0.61719 0.90229-0.46862 0.68524-1.615 0.22262-2.5566-2.328-4.7385-8.0897-5.9361-13.599-6.0273z" style="fill:#ff3137"/>
<path d="m24 13.957c-5.5098 0.09121-11.272 1.2889-13.6 6.0273-0.31017 0.63132-0.50011 1.351-0.32617 1.9004 0.0704-0.30268 0.18388-0.61078 0.32617-0.90039 2.328-4.7385 8.0898-5.9361 13.6-6.0273 5.5098 0.09121 11.272 1.2889 13.6 6.0273 0.14229 0.28962 0.25577 0.59771 0.32617 0.90039 0.17394-0.54943-0.01601-1.2691-0.32617-1.9004-2.328-4.7385-8.0898-5.9361-13.6-6.0273z" style="fill:#fff;opacity:.2"/>
<path d="m24 3c-6.3119 0-16 7.1634-16 16 0 0.13444 0.016234 0.26479 0.019531 0.39844 0.4252-8.5576 9.8125-15.398 15.98-15.398s15.555 6.8408 15.98 15.398c0.003297-0.13365 0.019531-0.264 0.019531-0.39844 0-8.8366-9.6881-16-16-16z" style="fill:#fff;opacity:.2"/>
<path d="m 24,26 a 6,5 0 0 0 -6,5 6,5 0 0 0 0.0332,0.476562 A 6,5 0 0 1 24,27 6,5 0 0 1 29.966797,31.523438 6,5 0 0 0 30,31 6,5 0 0 0 24,26 Z" style="fill:#fff;opacity:.2"/>
</g>
<path transform="matrix(.5 0 0 .5 .066304 .016549)" d="m4.7043 3.9815-0.012938 56.82h53.904l1.0222-2.8664s-23.875 0.76639-32.844-4.1404c-10.516-5.7529-15.372-49.697-15.372-49.697z" style="fill:url(#linearGradient3403);mix-blend-mode:normal;stroke-linejoin:round;stroke-width:1.1624;stroke:url(#linearGradient20558)"/>
<rect transform="matrix(.46839 0 0 .46744 .90638 1.0269)" x="1.0324" y=".59551" width="62.567" height="62.867" rx="5.803" ry="6.2447" style="fill:none;stroke-linejoin:round;stroke-miterlimit:7.8;stroke-opacity:.99515;stroke-width:3.7137;stroke:url(#linearGradient4557)"/>
</svg>
